build/images/icons/instagram.svg

<svg xmlns="http://www.w3.org/2000/svg" width="16" height="16"><path d="M14 16.015H2a2 2 0 01-2-2v-12a2 2 0 012-2h12a2 2 0 012 2v12a2 2 0 01-2 2zm-6-11.1c-1.247 0-2.32.738-2.811 1.8h-.003l-.014.034a3.234 3.234 0 00-.08.201c-.012.032-.025.064-.036.097a2.58 2.58 0 00-.059.213c-.009.033-.019.066-.026.1a2.45 2.45 0 00-.038.23l-.015.093a3.1 3.1 0 106.164 0l-.015-.093a2.828 2.828 0 00-.038-.23c-.007-.034-.017-.067-.026-.1a3.043 3.043 0 00-.059-.213c-.011-.033-.024-.065-.036-.097a3.234 3.234 0 00-.08-.201l-.014-.034h-.003A3.097 3.097 0 008 4.915zm6.2-2.3a.8.8 0 00-.8-.8h-1.6a.8.8 0 00-.8.8v1.6a.8.8 0 00.8.8h1.6a.8.8 0 00.8-.8v-1.6zm0 4.1h-1.475a4.9 4.9 0 11-9.45 0H1.8v6.7a.8.8 0 00.8.8h10.8a.8.8 0 00.8-.8v-6.7z"/></svg>

<svg 
 xmlns="http://www.w3.org/2000/svg"
 xmlns:xlink="http://www.w3.org/1999/xlink"
 width="16px" height="16px">
<path 
 d="M14.000,16.015 L2.000,16.015 C0.895,16.015 -0.000,15.120 -0.000,14.015 L-0.000,2.015 C-0.000,0.910 0.895,0.015 2.000,0.015 L14.000,0.015 C15.105,0.015 16.000,0.910 16.000,2.015 L16.000,14.015 C16.000,15.120 15.105,16.015 14.000,16.015 ZM8.000,4.915 C6.753,4.915 5.680,5.653 5.189,6.715 L5.186,6.715 C5.181,6.726 5.177,6.738 5.172,6.749 C5.143,6.814 5.117,6.882 5.092,6.950 C5.080,6.982 5.067,7.014 5.056,7.047 C5.033,7.117 5.014,7.188 4.997,7.260 C4.988,7.293 4.978,7.326 4.971,7.360 C4.954,7.435 4.943,7.512 4.933,7.590 C4.928,7.621 4.922,7.652 4.918,7.683 C4.907,7.792 4.900,7.903 4.900,8.015 C4.900,9.727 6.288,11.115 8.000,11.115 C9.712,11.115 11.100,9.727 11.100,8.015 C11.100,7.903 11.093,7.792 11.082,7.683 C11.078,7.652 11.072,7.621 11.067,7.590 C11.057,7.512 11.045,7.435 11.029,7.360 C11.022,7.326 11.012,7.293 11.003,7.260 C10.985,7.188 10.967,7.117 10.944,7.047 C10.933,7.014 10.920,6.982 10.908,6.950 C10.883,6.882 10.857,6.814 10.828,6.749 C10.823,6.738 10.819,6.726 10.814,6.715 L10.811,6.715 C10.319,5.653 9.247,4.915 8.000,4.915 ZM14.200,2.615 C14.200,2.173 13.842,1.815 13.400,1.815 L11.800,1.815 C11.358,1.815 11.000,2.173 11.000,2.615 L11.000,4.215 C11.000,4.657 11.358,5.015 11.800,5.015 L13.400,5.015 C13.842,5.015 14.200,4.657 14.200,4.215 L14.200,2.615 ZM14.200,6.715 L12.725,6.715 C12.839,7.129 12.900,7.565 12.900,8.015 C12.900,10.721 10.706,12.915 8.000,12.915 C5.294,12.915 3.100,10.721 3.100,8.015 C3.100,7.565 3.161,7.129 3.275,6.715 L1.800,6.715 L1.800,13.415 C1.800,13.857 2.158,14.215 2.600,14.215 L13.400,14.215 C13.842,14.215 14.200,13.857 14.200,13.415 L14.200,6.715 Z"/>
</svg>
